X: 18361
T: Humours Of Whiskey, The
R: slip jig
M: 9/8
K: Bminor
|:gfe fBB fBB|gfe fBB fga|gfe fBB fBB|agf efd cBA:|
|:d2e fdf ecA|d2e fef fga|d2e fdf ecA|agf efd cBA:|

